X: 30634
T: COL. MC'ENALLY'S REEL
C:
%R: reel
B: Elias Howe "The Musician's Companion" Part 3 1844 p.63 #4
S: http://imslp.org/wiki/The_Musician's_Companion_(Howe,_Elias)
S: https://archive.org/stream/firstthirdpartof03howe/#page/66/mode/1up
Z: 2015 John Chambers <jc:trillian.mit.edu>
M: 2/4
L: 1/16
K: F
% - - - - - - - - - - - - - - - - - - - - - - - - -
|:\
CFAF CGBG | CFAF EF/G/ EC |\
CFAF CGBG | cABG F/F/F F2 ::\
(fg/a/) fd dBcA | BGAF EF/G/ EC |
FcAc FdBd | cfeg ff/f/ (fg) |\
afge fcdB | cABG EF/G/ EC |\
(CF)(AF) CGBG | cABG FF/F/ F2 :|
% - - - - - - - - - - - - - - - - - - - - - - - - -
